Obsidian-SemiLight/actions/24s/lighttable.svg

<svg viewBox="0 0 24 24" xmlns="http://www.w3.org/2000/svg"><path d="m12 4c-4.41828 0-8 3.58172-8 8 0 2.0276.75669 3.87132 2 5.28125.2080306.267242.4988118.505096.71875.71875 1.40993 1.24331 3.25365 2 5.28125 2 4.41828 0 8-3.58172 8-8 0-2.0276-.75669-3.87132-2-5.28125-.11136-.12621-.22478-.25603-.34375-.375l-.375-.34375c-1.40993-1.24331-3.25365-2-5.28125-2zm4.949219 3.0507812c.697363.700308 1.238529 1.5403474 1.58789 2.4648438.00097.002.002907.0028594.003907.0058594.0066.019502.013111.0390337.019531.0585937.283874.6848389.357738 1.3830859.423828 2.0957029.005.10821.013672.214619.013672.324219v.042969c-.06847 3.545269-2.592827 6.180701-5.953125 6.871093-.12834.019201-.256209.040535-.386719.052735-.135849.01048-.271974.017001-.408203.019531-.083684.003004-.16557.013672-.25.013672-.0149 0-.030022-.003906-.044922-.003906-.82235.01319-1.596767-.192715-2.3574218-.431641-.0456-.017-.091599-.032781-.1367187-.050781-.1707998-.06695-.3388942-.140561-.5039063-.220703-.7060893-.338166-1.3504477-.792386-1.90625-1.34375z" fill="#4d4d4d"/></svg>

<svg xmlns="http://www.w3.org/2000/svg" viewBox="0 0 24 24">
  <defs id="defs3051">
    <style type="text/css" id="current-color-scheme">
      .ColorScheme-Text {
        color:#4d4d4d;
      }
      </style>
  </defs>
 <path style="fill:currentColor;fill-opacity:1;stroke:none" 
     d="M 12 4 C 7.58172 4 4 7.58172 4 12 C 4 14.0276 4.75669 15.87132 6 17.28125 C 6.2080306 17.548492 6.4988118 17.786346 6.71875 18 C 8.12868 19.24331 9.9724 20 12 20 C 16.41828 20 20 16.41828 20 12 C 20 9.9724 19.24331 8.12868 18 6.71875 C 17.88864 6.59254 17.77522 6.46272 17.65625 6.34375 L 17.28125 6 C 15.87132 4.75669 14.0276 4 12 4 z M 16.949219 7.0507812 C 17.646582 7.7510892 18.187748 8.5911286 18.537109 9.515625 C 18.538079 9.517625 18.540016 9.5184844 18.541016 9.5214844 C 18.547616 9.5409864 18.554127 9.5605181 18.560547 9.5800781 C 18.844421 10.264917 18.918285 10.963164 18.984375 11.675781 C 18.989375 11.783991 18.998047 11.8904 18.998047 12 L 18.998047 12.042969 C 18.929577 15.588238 16.40522 18.22367 13.044922 18.914062 C 12.916582 18.933263 12.788713 18.954597 12.658203 18.966797 C 12.522354 18.977277 12.386229 18.983798 12.25 18.986328 C 12.166316 18.989332 12.08443 19 12 19 C 11.9851 19 11.969978 18.996094 11.955078 18.996094 C 11.132728 19.009284 10.358311 18.803379 9.5976562 18.564453 C 9.5520562 18.547453 9.5060572 18.531672 9.4609375 18.513672 C 9.2901377 18.446722 9.1220433 18.373111 8.9570312 18.292969 C 8.2509419 17.954803 7.6065835 17.500583 7.0507812 16.949219 L 16.949219 7.0507812 z "
     class="ColorScheme-Text"
     />
</svg>
